X:227
T:Bonnie Kate
S:Yann Falquet from Donna Hébert
Z:robin.beech@mcgill.ca
R:jig
M:6/8
L:1/8
K:D
DdD cDB | ABA FED | EFG EFG | ABA FED |
DdD cDB | ABA FED | EFG EFG|1 ABc d3 :|2 ABc def |:
gfg ecA | a^ga fdA | gfg ecA | ecA ABc | dfe def |
gfg ecA | a^ga fdA | gfg ecA | ecA ABc |1 dfe def :|2 dfe dAF | GFE |]
